vendor/shopware/storefront/Resources/app/storefront/dist/assets/icon/default/cart.svg

<svg xmlns="http://www.w3.org/2000/svg" width="24" height="24" viewBox="0 0 24 24">
  <path fill="#758CA3" fill-rule="evenodd" d="M7.83409843,20.9863016 C7.42615464,22.158644 6.31133193,23 5,23 C3.34314575,23 2,21.6568542 2,20 C2,18.6030124 2.95485988,17.4290442 4.24752357,17.0951516 L4.69038867,15.7665563 C3.68248994,15.3428262 2.9496145,14.3833933 2.86089882,13.2300895 L2.15633851,4.07080547 C2.10985937,3.46657661 1.60601388,3 1,3 C0.44771525,3 1.08663177e-16,2.55228475 0,2 C-1.08663177e-16,1.44771525 0.44771525,1 1,1 C2.6510865,1 4.02381493,2.27118927 4.15044748,3.91741247 L23,3.94461486 C23.6306142,3.94461486 24.1038063,4.52119321 23.9807879,5.139692 L22.3009836,13.5852314 C22.0217818,14.9889724 20.789858,16 19.3586199,16 L6.72075922,16 L6.29044246,17.2909503 C7.00909189,17.6338892 7.56987096,18.2543657 7.83409843,19.0136984 C7.88805868,19.0046887 7.94348179,19 8,19 L16.1707057,19 C16.5825421,17.8348076 17.6937812,17 19,17 C20.6568542,17 22,18.3431458 22,20 C22,21.6568542 20.6568542,23 19,23 C17.6937812,23 16.5825421,22.1651924 16.1707057,21 L8,21 C7.94348179,21 7.88805868,20.9953113 7.83409843,20.9863016 Z M4.98354988,19.0001326 C4.43885229,19.0089176 4,19.4532091 4,20 C4,20.5522847 4.44771525,21 5,21 C5.55228475,21 6,20.5522847 6,20 C6,19.453257 5.56122457,19.0089954 5.01659322,19.0001349 C5.00559915,19.0003172 4.99458336,19.0003171 4.98354988,19.0001326 Z M6.02305932,14 L19.3586199,14 C19.8356993,14 20.2463406,13.6629908 20.3394078,13.1950771 L21.7815132,5.94461486 L4.30638613,5.94461486 L4.85500779,13.0766965 C4.8950845,13.5976937 5.32952597,14 5.85206228,14 L5.97665767,14 C5.99208425,13.9996392 6.00755514,13.9996373 6.02305932,14 Z M19,21 C19.5522847,21 20,20.5522847 20,20 C20,19.4477153 19.5522847,19 19,19 C18.4477153,19 18,19.4477153 18,20 C18,20.5522847 18.4477153,21 19,21 Z"/>
</svg>

<svg xmlns="http://www.w3.org/2000/svg" width="24" height="24" viewBox="0 0 24 24"><path fill="#758CA3" fill-rule="evenodd" d="M7.8341 20.9863C7.4261 22.1586 6.3113 23 5 23c-1.6569 0-3-1.3431-3-3 0-1.397.9549-2.571 2.2475-2.9048l.4429-1.3286c-1.008-.4238-1.7408-1.3832-1.8295-2.5365l-.7046-9.1593A1.1598 1.1598 0 0 0 1 3c-.5523 0-1-.4477-1-1s.4477-1 1-1c1.651 0 3.0238 1.2712 3.1504 2.9174L23 3.9446c.6306 0 1.1038.5766.9808 1.195l-1.6798 8.4456C22.0218 14.989 20.7899 16 19.3586 16H6.7208l-.4304 1.291a3.0095 3.0095 0 0 1 1.5437 1.7227C7.8881 19.0047 7.9435 19 8 19h8.1707c.4118-1.1652 1.523-2 2.8293-2 1.6569 0 3 1.3431 3 3s-1.3431 3-3 3c-1.3062 0-2.4175-.8348-2.8293-2H8c-.0565 0-.112-.0047-.1659-.0137zm-2.8506-1.9862C4.439 19.009 4 19.4532 4 20c0 .5523.4477 1 1 1s1-.4477 1-1c0-.5467-.4388-.991-.9834-.9999a.9923.9923 0 0 1-.033 0zM6.0231 14h13.3355a1 1 0 0 0 .9808-.805l1.4421-7.2504H4.3064l.5486 7.1321A1 1 0 0 0 5.852 14h.1247a.9921.9921 0 0 1 .0464 0zM19 21c.5523 0 1-.4477 1-1s-.4477-1-1-1-1 .4477-1 1 .4477 1 1 1z"/></svg>
